X:1
T:Parallelisms in WTC 2
T:Consecutive perfect fifths and octaves in WTC 1, 2.
T:J. S. Bach
%%score { ( 1 4 ) | ( 2 3 ) }
L:1/8
Q:1/4=110
M:4/4
K:C#
V:1 treble nm="Piano" snm="Pno."
V:4 treble 
V:2 bass 
V:3 bass 
V:1
"^Fugue BWV-848 m.39""_1" g/g/f/g/ e/"^parallel 5th"g/d/g/ c/g/B/A/ B/d/e/!breath!f/ |] %1
[K:F][M:3/4][Q:1/4=57]"^Fugue BWV-851 m.15-16""_2" ea- a/g/^f/"^parallel 5th"e/ g/f/e/d/ | %2
 _e/c'/b z/ a/^g/^f/ a/g/f/!breath!=e/ |] %3
[K:D][M:4/4]"^Fugue BWV-869 m.22-23""_3" B2 =A2"^parallel 5th" ^G2 F2- | F^E F2 !breath!^G4 |] %5
[M:4/4][Q:1/4=88]"_4" (3:2:5z"^Prelude BWV-874, m.18-19" A/B/c/d/ (3ece (3:2:6a/e/f/^g/a/g/ (3:2:6a/e/"^parallel 5th"f/g/a/g/ | %6
 (3:2:5a^g/f/e/d/ (3:2:6c/d/e/d/c/B/ !breath!A4 |] %7
[K:F#]"^Prelude BWV-877, m.21-22"[Q:1/4=68]"_5" g/=e/d/f/ e/d/c/^B/ e/c/=B/d/ c/B/A/G/ | %8
"^parallel 8th" ^^FG d2- d/B/c/A/ B/d/G/!breath!^F/ |] %9
[Q:1/4=48]"^Fugue BWV-883, m.35-36""_6" ^Bf=e^d"^parallel 5th" e3 ^d/c/ | g^B c4 !breath!^B2 |] %11
[K:Bb][M:3/4][Q:1/4=96]"^Fugue BWV-885, m.63-64""_7" dd"^parallel 5th"ef g2- | %12
 g/f/g/f/ e/d/e/d/ c/B/c/!breath!B/ |] %13
V:2
[I:staff -1] F/E/D/F/ cG ED/C/ D/[I:staff +1]G,/[I:staff -1]C/D/ |] %1
[K:F][M:3/4] ^C/E/F/E/[I:staff +1] A,2[I:staff -1] =C2 | B,/D/_E/D/ =B,2 =E2 |] %3
[K:D][M:4/4][I:staff +1] B,/G,/F,/E,/ ^D,>C, =D,/E,/D,/C,/ B,,/A,,/^G,,/F,,/ | %4
 ^G,,/B,,/A,,/G,,/ F,,/A,,/D,/C,/ B,,^G,,C,C,, |][M:4/4] A,2[I:staff -1] [CA]2 [CA][DB][DB][Ec] | %6
[I:staff +1] (3:2:5z E/D/C/B,/ (3A,CA, (3E,A,E, (3C,E,C, |] %7
[K:F#] =E,/G,/F,/=A,/ G,/F,/E,/D,/ C,=E, ^A,2- | A,/^^F,/G,/^E,/ F,/A,/D,/C,/ B,,D, G,2 |] %9
 =A,G,/F,/ G,2- G,C F,2- | F,=E,/D,/ E,C, ^D,2 G,2 |] %11
[K:Bb][M:3/4] D/C/D/C/ B,/_A,/B,/A,/ G,/F,/G,/F,/ | E,EEEEE |] %13
V:3
 x8 |][K:F][M:3/4] A,2 ^F,E,D,E, | G,2 ^G,^F,E,G, |][K:D][M:4/4] x8 | x8 |][M:4/4] z2 A,2 A, z2 z | %6
 x8 |][K:F#] x8 | x8 |] x8 | x8 |][K:Bb][M:3/4] B,_A,G,F,E,D, | C,CCCCC |] %13
V:4
 x8 |][K:F][M:3/4] x6 | x6 |][K:D][M:4/4] E^D=cB F^E=d^c | ^BcAF- F/^G/A/=B/ c/d/F/^E/ |] %5
[M:4/4] x8 | [Ec] z4 x3 |][K:F#] x8 | x8 |] z dc>^B c=B=AG | %10
[I:staff +1] ^B,[I:staff -1]D[I:staff +1]G,[I:staff -1]G F/G/F/=E/ F/E/^D/F/ |] %11
[K:Bb][M:3/4] FFG_AB=B | c/d/e/d/ c/B/c/B/ _A/G/A/G/ |] %13

